X:15
T:Geloxia
W:Domenico (1450). After D'Aurillac
M:6/4
L:1/4
K:G
G2 A B2 c | d3 d2 d/e/ | =f2 e/f/ d2 c/d/ | B2 A/B/ G2 A |
B2 A B2 c | d3 d2 e/d/ | c2 B/c/ B2 A | G2 G G2 G |
g f e d | g =f e d | g =f e f | d2 Hd2 |
B > A B c | d2 d>c | B A/B/ A> A | G2 HG2 |
B>A B c | d3/2 d/4e/4 =f > f | =f e/f/ d c | B2 d2 |]
%%topmargin 1.2 in
%%bottommargin 1.0 in
%%titlefont Times-Roman 24
%%composerspace 0
%%partsspace 0
%%writehistory 1
%%scale 0.7
%%maxshrink 1
%
%
